X: 42989
T: Willie Winkie
R: polka
M: 2/4
K: Eminor
e|dG BA/B/|dGGe|dGBA|GEE e|dG BA/B/|dGGB|AcBA|GEE:|F|G2 AG/A/|BEEF|GBAG|
FDDF|G2 AG/A/|Bggc|BG AG/F/|GEE:|f|g2 ag/a/|beef|gbag|fdd g|bg ag/f/|gedB|
G2 AG/A/|BEE:|

